; generated by PrusaSlicer 2.5.0+MacOS-arm64 on 2022-09-28 at 17:06:56 UTC


;
;
; 

; external perimeters extrusion width = 0.45mm
; perimeters extrusion width = 0.45mm
; infill extrusion width = 0.45mm
; solid infill extrusion width = 0.45mm
; top infill extrusion width = 0.40mm
; support material extrusion width = 0.35mm
; first layer extrusion width = 0.42mm

; external perimeters extrusion width = 0.45mm
; perimeters extrusion width = 0.45mm
; infill extrusion width = 0.45mm
; solid infill extrusion width = 0.45mm
; top infill extrusion width = 0.40mm
; support material extrusion width = 0.35mm
; first layer extrusion width = 0.42mm

; external perimeters extrusion width = 0.45mm
; perimeters extrusion width = 0.45mm
; infill extrusion width = 0.45mm
; solid infill extrusion width = 0.45mm
; top infill extrusion width = 0.40mm
; support material extrusion width = 0.35mm
; first layer extrusion width = 0.42mm

; external perimeters extrusion width = 0.45mm
; perimeters extrusion width = 0.45mm
; infill extrusion width = 0.45mm
; solid infill extrusion width = 0.45mm
; top infill extrusion width = 0.40mm
; support material extrusion width = 0.35mm
; first layer extrusion width = 0.42mm

; external perimeters extrusion width = 0.45mm
; perimeters extrusion width = 0.45mm
; infill extrusion width = 0.45mm
; solid infill extrusion width = 0.45mm
; top infill extrusion width = 0.40mm
; support material extrusion width = 0.35mm
; first layer extrusion width = 0.42mm

; external perimeters extrusion width = 0.45mm
; perimeters extrusion width = 0.45mm
; infill extrusion width = 0.45mm
; solid infill extrusion width = 0.45mm
; top infill extrusion width = 0.40mm
; support material extrusion width = 0.35mm
; first layer extrusion width = 0.42mm

; external perimeters extrusion width = 0.45mm
; perimeters extrusion width = 0.45mm
; infill extrusion width = 0.45mm
; solid infill extrusion width = 0.45mm
; top infill extrusion width = 0.40mm
; support material extrusion width = 0.35mm
; first layer extrusion width = 0.42mm

; external perimeters extrusion width = 0.45mm
; perimeters extrusion width = 0.45mm
; infill extrusion width = 0.45mm
; solid infill extrusion width = 0.45mm
; top infill extrusion width = 0.40mm
; support material extrusion width = 0.35mm
; first layer extrusion width = 0.42mm

; external perimeters extrusion width = 0.45mm
; perimeters extrusion width = 0.45mm
; infill extrusion width = 0.45mm
; solid infill extrusion width = 0.45mm
; top infill extrusion width = 0.40mm
; support material extrusion width = 0.35mm
; first layer extrusion width = 0.42mm

; external perimeters extrusion width = 0.45mm
; perimeters extrusion width = 0.45mm
; infill extrusion width = 0.45mm
; solid infill extrusion width = 0.45mm
; top infill extrusion width = 0.40mm
; support material extrusion width = 0.35mm
; first layer extrusion width = 0.42mm

; external perimeters extrusion width = 0.45mm
; perimeters extrusion width = 0.45mm
; infill extrusion width = 0.45mm
; solid infill extrusion width = 0.45mm
; top infill extrusion width = 0.40mm
; support material extrusion width = 0.35mm
; first layer extrusion width = 0.42mm

M73 P0 R138
M73 Q0 S142
M201 X1000 Y1000 Z200 E5000 ; sets maximum accelerations, mm/sec^2
M203 X200 Y200 Z12 E120 ; sets maximum feedrates, mm / sec
M204 P1250 R1250 T1250 ; sets acceleration (P, T) and retract acceleration (R), mm/sec^2
M205 X8.00 Y8.00 Z0.40 E4.50 ; sets the jerk limits, mm/sec
M205 S0 T0 ; sets the minimum extruding and travel feed rate, mm/sec
M107
;TYPE:Custom
M862.3 P "MK3S" ; printer model check
M862.1 P0.4 ; nozzle diameter check
M115 U3.11.0 ; tell printer latest fw version
G90 ; use absolute coordinates
M83 ; extruder relative mode
M104 S215 ; set extruder temp
M140 S60 ; set bed temp
M190 S60 ; wait for bed temp
M109 S215 ; wait for extruder temp
G28 W ; home all without mesh bed level
G80 ; mesh bed leveling

G1 Z0.2 F720
G1 Y-3 F1000 ; go outside print area
G92 E0
G1 X60 E9 F1000 ; intro line
G1 X100 E12.5 F1000 ; intro line

G92 E0
M221 S95

; Don't change E values below. Excessive value can damage the printer.
M907 E430 ; set extruder motor current
G21 ; set units to millimeters
G90 ; use absolute coordinates
M83 ; use relative distances for extrusion
M900 K0.05 ; Filament gcode LA 1.5
M900 K30 ; Filament gcode LA 1.0
M107
;LAYER_CHANGE
;Z:0.2
;HEIGHT:0.2
;BEFORE_LAYER_CHANGE
G92 E0.0
;0.2


G1 E-.8 F2100
G1 Z.4 F720
;AFTER_LAYER_CHANGE
;0.2
G1 X54.029 Y64.382 F10800
G1 Z.2 F720
G1 E.8 F2100
M204 S800
;TYPE:Skirt/Brim
;WIDTH:0.42
G1 F1200
G1 X54.95 Y63.66 E.0367
G1 X55.915 Y63.231 E.03313
G1 X56.923 Y63.035 E.03217
G1 X67.462 Y62.794 E.33053
G1 X178.491 Y61.723 E3.48141
G1 X198.709 Y61.755 E.63393
G1 X212.616 Y64.073 E.44205
G1 X213.906 Y64.737 E.04549
G1 X218.542 Y69.373 E.20555
G1 X219.223 Y70.785 E.04915
G1 X226.332 Y133.211 E1.96999
G1 X226.347 Y141.695 E.26602
G1 X225.955 Y143.002 E.04278
G1 X224.721 Y143.95 E.04879
G1 X217.47 Y146.346 E.23944
G1 X205.401 Y148.69 E.38551
G1 X92.955 Y162.578 E3.55245
G1 X47.574 Y162.596 E1.42288
M73 Q0 S141
G1 X46.267 Y162.204 E.04278
G1 X45.391 Y161.158 E.04278
G1 X45.199 Y160.319 E.027
G1 X43.645 Y122.679 E1.18118
G1 X46.461 Y100.064 E.71454
G1 X47.279 Y94.435 E.17833
G1 X47.763 Y91.723 E.08639
G1 X52.801 Y66.627 E.80257
G1 X53.038 Y65.88 E.02456
G1 X53.468 Y65.069 E.0288
G1 X53.991 Y64.428 E.02591
M204 S1000
; printing object eamesv3.stl_4 id:3 copy 0
;WIPE_START
G1 F8640
G1 X54.95 Y63.66 E-.28381
G1 X55.915 Y63.231 E-.24396
G1 X56.903 Y63.039 E-.23223
;WIPE_END
G1 E-.04 F2100
G1 Z.6 F720
G1 X172.192 Y71.331 F10800
G1 Z.2 F720
G1 E.8 F2100
M204 S800
;TYPE:Support material interface
;WIDTH:0.35
G1 F1200
G1 X172.192 Y71.685 E.00903
G1 X172.364 Y71.684 E.00441
G1 X172.364 Y67.049 E.11837
G1 X172.882 Y67.049 E.01322
G1 X172.882 Y71.684 E.11837
G1 X173.4 Y71.684 E.01322
G1 X173.4 Y70.506 E.03009
G1 X173.355 Y70.39 E.00318
G1 X173.346 Y70.263 E.00325
G1 X173.4 Y70.06 E.00535
G1 X173.4 Y67.049 E.07689
G1 X173.918 Y67.049 E.01322
G1 X173.918 Y69.33 E.05824
G1 X174.131 Y69.095 E.00811
G1 X174.435 Y68.843 E.01008
G1 X174.435 Y67.049 E.04582
G1 X174.953 Y67.049 E.01322
G1 X174.953 Y68.43 E.03526
G1 X175.126 Y68.341 E.00496
G1 X175.471 Y68.279 E.00895
G1 X175.471 Y67.049 E.03141
G1 X175.989 Y67.049 E.01322
G1 X175.989 Y68.187 E.02907
G1 X176.507 Y68.099 E.01341
G1 X176.507 Y67.049 E.02682
G1 X176.827 Y67.049 E.00819
G1 X176.827 Y68.048 E.02551
G1 X176.664 Y68.074 E.00423
M204 S1000
;WIPE_START
G1 F8640
G1 X176.827 Y68.048 E-.03828
G1 X176.827 Y67.049 E-.23068
G1 X176.507 Y67.049 E-.07402
G1 X176.507 Y68.099 E-.24257
G1 X175.989 Y68.187 E-.12128
G1 X175.989 Y67.957 E-.05316
;WIPE_END
G1 E-.04 F2100
G1 Z.6 F720
G1 X174.823 Y66.68 F10800
G1 Z.2 F720
G1 E.8 F2100
M204 S800
;TYPE:Support material
;WIDTH:0.42
G1 F1200
G1 X171.823 Y66.68 E.09406
G1 X171.823 Y72.053 E.16849
G1 X174.878 Y72.053 E.09581
G1 X174.878 Y70.377 E.05257
G1 X174.323 Y70.466 E.01765
G1 X173.957 Y70.473 E.01147
G1 X173.841 Y70.445 E.00373
G1 X173.758 Y70.393 E.00309
G1 X173.718 Y70.291 E.00344
G1 X173.738 Y70.208 E.00267
G1 X173.895 Y69.962 E.00913
G1 X174.128 Y69.647 E.01229
G1 X174.377 Y69.37 E.01169
G1 X174.823 Y69.002 E.01812
G1 X174.823 Y69.053 E.00162
G1 X175.14 Y69.053 E.00997
G1 X175.14 Y76.951 E.24762
G1 X170.505 Y76.951 E.14535
G1 X170.505 Y79.269 E.07267
G1 X159.972 Y79.269 E.33026
G1 X159.972 Y71.053 E.25759
G1 X162.289 Y71.053 E.07267
G1 X162.289 Y68.736 E.07267
G1 X164.607 Y68.736 E.07267
G1 X164.607 Y66.418 E.07267
G1 X174.823 Y66.418 E.3203
G1 X174.823 Y66.623 E.00644
M204 S1000
;WIPE_START
G1 F8640
G1 X174.823 Y66.418 E-.04744
G1 X171.737 Y66.418 E-.71256
;WIPE_END
G1 E-.04 F2100
G1 Z.6 F720
G1 X174.59 Y76.781 F10800
G1 Z.2 F720
G1 E.8 F2100
M204 S800
G1 F1200
G1 X174.59 Y72.393 E.1376
G1 X174.171 Y72.393 E.01314
G1 X174.171 Y76.612 E.13228
G1 X173.752 Y76.612 E.01314
G1 X173.752 Y72.393 E.13228
G1 X173.333 Y72.393 E.01314
G1 X173.333 Y76.612 E.13228
G1 X172.914 Y76.612 E.01314
G1 X172.914 Y72.393 E.13228
G1 X172.495 Y72.393 E.01314
G1 X172.495 Y76.612 E.13228
G1 X172.076 Y76.612 E.01314
G1 X172.076 Y72.393 E.13228
G1 X171.657 Y72.393 E.01314
G1 X171.657 Y76.612 E.13228
G1 X171.238 Y76.612 E.01314
G1 X171.238 Y66.757 E.30898
G1 X170.819 Y66.757 E.01314
G1 X170.819 Y76.612 E.30898
G1 X170.4 Y76.612 E.01314
G1 X170.4 Y66.757 E.30898
G1 X169.981 Y66.757 E.01314
G1 X169.981 Y78.93 E.38165
G1 X169.562 Y78.93 E.01314
G1 X169.562 Y66.757 E.38165
G1 X169.143 Y66.757 E.01314
G1 X169.143 Y78.93 E.38165
G1 X168.724 Y78.93 E.01314
G1 X168.724 Y66.757 E.38165
G1 X168.305 Y66.757 E.01314
G1 X168.305 Y78.93 E.38165
G1 X167.886 Y78.93 E.01314
G1 X167.886 Y66.757 E.38165
G1 X167.467 Y66.757 E.01314
G1 X167.467 Y78.93 E.38165
G1 X167.049 Y78.93 E.01314
G1 X167.049 Y66.757 E.38165
G1 X166.63 Y66.757 E.01314
G1 X166.63 Y78.93 E.38165
G1 X166.211 Y78.93 E.01314
G1 X166.211 Y66.757 E.38165
G1 X165.792 Y66.757 E.01314
G1 X165.792 Y78.93 E.38165
G1 X165.373 Y78.93 E.01314
G1 X165.373 Y66.757 E.38165
G1 X164.954 Y66.757 E.01314
G1 X164.954 Y78.93 E.38165
G1 X164.535 Y78.93 E.01314
G1 X164.535 Y69.075 E.30898
G1 X164.116 Y69.075 E.01314
G1 X164.116 Y78.93 E.30898
G1 X163.697 Y78.93 E.01314
G1 X163.697 Y69.075 E.30898
G1 X163.278 Y69.075 E.01314
G1 X163.278 Y78.93 E.30898
G1 X162.859 Y78.93 E.01314
G1 X162.859 Y69.075 E.30898
G1 X162.629 Y69.075 E.00721
G1 X162.629 Y71.393 E.07267
G1 X162.44 Y71.393 E.00593
G1 X162.44 Y78.93 E.23631
G1 X162.021 Y78.93 E.01314
G1 X162.021 Y71.393 E.23631
G1 X161.602 Y71.393 E.01314
G1 X161.602 Y78.93 E.23631
G1 X161.183 Y78.93 E.01314
G1 X161.183 Y71.393 E.23631
G1 X160.764 Y71.393 E.01314
G1 X160.764 Y78.93 E.23631
G1 X160.345 Y78.93 E.01314
G1 X160.345 Y71.223 E.24163
M204 S1000
;WIPE_START
G1 F8640
G1 X160.345 Y74.515 E-.76
;WIPE_END
G1 E-.04 F2100
G1 Z.6 F720
G1 X174.59 Y70.257 F10800
G1 Z.2 F720
M73 P0 R137
G1 E.8 F2100
M204 S800
G1 F1200
G1 X174.59 Y69.415 E.0264
M204 S1000
;WIPE_START
G1 F8640
G1 X174.59 Y70.257 E-.19444
;WIPE_END
G1 E-.60556 F2100
G1 Z.6 F720
G1 X174.435 Y70.823 F10800
G1 Z.2 F720
G1 E.8 F2100
M204 S800
;TYPE:Support material interface
;WIDTH:0.35
G1 F1200
G1 X174.435 Y71.684 E.02199
G1 X173.918 Y71.684 E.01322
G1 X173.918 Y70.84 E.02155
G1 X173.657 Y70.767 E.00691
G1 X173.483 Y70.639 E.00551
M204 S1000
;WIPE_START
G1 F8640
G1 X173.657 Y70.767 E-.04987
G1 X173.918 Y70.84 E-.06251
G1 X173.918 Y71.684 E-.19491
G1 X174.435 Y71.684 E-.11956
G1 X174.435 Y70.823 E-.19881
;WIPE_END
G1 E-.17433 F2100
G1 Z.6 F720
G1 X184.115 Y67.049 F10800
G1 Z.2 F720
G1 E.8 F2100
M204 S800
G1 F1200
G1 X183.781 Y67.049 E.00854
G1 X183.781 Y67.539 E.0125
G1 X184.274 Y67.552 E.0126
G1 X184.274 Y67.049 E.01284
G1 X184.792 Y67.049 E.01322
G1 X184.792 Y67.569 E.01329
G1 X185.309 Y67.592 E.01323
G1 X185.309 Y67.049 E.01386
G1 X185.827 Y67.049 E.01322
G1 X185.827 Y67.619 E.01455
G1 X186.345 Y67.648 E.01324
G1 X186.345 Y67.049 E.0153
G1 X186.863 Y67.049 E.01322
G1 X186.863 Y67.684 E.01621
G1 X187.381 Y67.72 E.01325
G1 X187.381 Y67.049 E.01714
G1 X187.899 Y67.049 E.01322
G1 X187.899 Y67.762 E.01822
G1 X188.416 Y67.809 E.01327
G1 X188.416 Y67.049 E.01941
G1 X188.934 Y67.049 E.01322
G1 X188.934 Y67.763 E.01824
G1 X189.452 Y67.722 E.01326
G1 X189.452 Y67.049 E.0172
G1 X189.97 Y67.049 E.01322
G1 X189.97 Y67.682 E.01618
G1 X190.488 Y67.651 E.01325
G1 X190.488 Y67.049 E.01539
G1 X191.005 Y67.049 E.01322
G1 X191.005 Y67.622 E.01464
G1 X191.523 Y67.593 E.01324
G1 X191.523 Y67.049 E.0139
G1 X192.041 Y67.049 E.01322
G1 X192.041 Y67.572 E.01335
G1 X192.559 Y67.556 E.01323
G1 X192.559 Y67.049 E.01294
G1 X193.052 Y67.049 E.01259
G1 X193.052 Y67.54 E.01255
G1 X192.718 Y67.551 E.00854
M204 S1000
;WIPE_START
G1 F8640
G1 X193.052 Y67.54 E-.07724
G1 X193.052 Y67.049 E-.1135
G1 X192.559 Y67.049 E-.11388
G1 X192.559 Y67.556 E-.11702
G1 X192.041 Y67.572 E-.11962
G1 X192.041 Y67.049 E-.12071
G1 X191.616 Y67.049 E-.09803
;WIPE_END
G1 E-.04 F2100
G1 Z.6 F720
G1 X186.412 Y64.963 F10800
G1 Z.2 F720
G1 E.8 F2100
M204 S800
;TYPE:Support material
;WIDTH:0.42
G1 F1200
G1 X186.504 Y64.965 E.0029
G1 X186.472 Y66.453 E.04668
G1 X188.416 Y66.405 E.06097
G1 X190.241 Y66.45 E.05723
G1 X190.198 Y64.992 E.04571
G1 X190.421 Y64.986 E.00699
G1 X190.421 Y64.1 E.02777
G1 X198.319 Y64.1 E.24762
G1 X198.319 Y68.456 E.13658
G1 X197.73 Y68.436 E.01848
G1 X197.348 Y68.448 E.01196
G1 X196.711 Y68.503 E.02004
G1 X196.127 Y68.593 E.01854
G1 X195.73 Y68.745 E.01333
G1 X195.599 Y69.197 E.01477
G1 X195.82 Y69.503 E.01184
G1 X195.937 Y69.592 E.00459
G1 X196.257 Y69.706 E.01066
G1 X196.7 Y69.807 E.01426
G1 X197.936 Y70.015 E.03927
G1 X199.91 Y70.299 E.06252
G1 X200.434 Y70.355 E.01654
G1 X200.825 Y70.371 E.01228
G1 X201.171 Y70.327 E.01092
G1 X201.336 Y70.224 E.00609
G1 X201.528 Y69.954 E.01041
G1 X201.497 Y69.6 E.01112
G1 X201.334 Y69.442 E.00713
G1 X201.205 Y69.338 E.00519
G1 X200.918 Y69.185 E.0102
G1 X200.235 Y68.879 E.02348
G1 X199.861 Y68.747 E.01243
G1 X199.147 Y68.563 E.02311
G1 X199.029 Y67.216 E.04242
G1 X199.636 Y67.327 E.01937
G1 X199.636 Y68.362 E.03247
G1 X201.618 Y68.702 E.06302
G1 X201.736 Y68.776 E.00438
G1 X202.174 Y69.142 E.01792
G1 X202.44 Y69.467 E.01317
G1 X202.794 Y69.786 E.01494
G1 X202.954 Y69.986 E.00802
G1 X203.096 Y70.21 E.00831
G1 X203.113 Y70.309 E.00315
G1 X203.075 Y70.392 E.00289
G1 X202.991 Y70.445 E.00309
G1 X202.876 Y70.473 E.00372
G1 X202.508 Y70.466 E.01156
G1 X201.954 Y70.377 E.01757
G1 X201.954 Y72.053 E.05257
G1 X205.01 Y72.054 E.09581
G1 X205.01 Y66.68 E.16849
G1 X202.01 Y66.68 E.09406
G1 X202.01 Y66.418 E.00821
G1 X212.225 Y66.418 E.32029
G1 X212.225 Y68.736 E.07267
G1 X214.543 Y68.736 E.07267
G1 X214.543 Y71.053 E.07267
G1 X216.861 Y71.053 E.07267
G1 X216.861 Y79.269 E.25759
G1 X206.328 Y79.269 E.33026
G1 X206.328 Y76.951 E.07267
G1 X201.692 Y76.951 E.14535
G1 X201.692 Y74.633 E.07267
G1 X197.057 Y74.633 E.14535
G1 X197.057 Y72.315 E.07267
G1 X179.628 Y72.315 E.54645
G1 X179.518 Y69.917 E.07528
G1 X180.126 Y69.809 E.01937
G1 X180.563 Y69.709 E.01406
G1 X180.897 Y69.592 E.0111
G1 X181.012 Y69.505 E.00451
G1 X181.236 Y69.192 E.01206
G1 X181.103 Y68.744 E.01467
G1 X180.706 Y68.593 E.01332
G1 X180.091 Y68.499 E.01949
G1 X179.478 Y68.447 E.01929
G1 X179.103 Y68.436 E.01177
G1 X178.514 Y68.455 E.01848
G1 X178.514 Y64.1 E.13655
G1 X186.412 Y64.1 E.24762
G1 X186.412 Y64.906 E.02528
M204 S1000
;WIPE_START
G1 F8640
G1 X186.412 Y64.1 E-.18614
G1 X183.926 Y64.1 E-.57386
;WIPE_END
G1 E-.04 F2100
G1 Z.6 F720
G1 X183.412 Y67.899 F10800
G1 Z.2 F720
G1 E.8 F2100
M204 S800
G1 F1200
G1 X185.063 Y67.949 E.05181
G1 X186.191 Y68.007 E.0354
G1 X188.416 Y68.179 E.06999
G1 X190.082 Y68.044 E.05241
G1 X191.762 Y67.949 E.05273
G1 X193.421 Y67.899 E.05205
G1 X193.421 Y66.68 E.03822
G1 X183.412 Y66.68 E.31383
G1 X183.412 Y67.843 E.03646
M204 S1000
G1 X216.488 Y79.099 F10800
M204 S800
G1 F1200
G1 X216.488 Y71.393 E.24163
G1 X216.069 Y71.393 E.01314
G1 X216.069 Y78.93 E.23631
G1 X215.65 Y78.93 E.01314
G1 X215.65 Y71.393 E.23631
G1 X215.231 Y71.393 E.01314
G1 X215.231 Y78.93 E.23631
G1 X214.812 Y78.93 E.01314
G1 X214.812 Y71.393 E.23631
G1 X214.393 Y71.393 E.01314
G1 X214.393 Y78.93 E.23631
G1 X213.974 Y78.93 E.01314
G1 X213.974 Y69.075 E.30898
G1 X213.555 Y69.075 E.01314
G1 X213.555 Y78.93 E.30898
G1 X213.136 Y78.93 E.01314
G1 X213.136 Y69.075 E.30898
G1 X212.717 Y69.075 E.01314
G1 X212.717 Y78.93 E.30898
G1 X212.298 Y78.93 E.01314
G1 X212.298 Y69.075 E.30898
G1 X211.886 Y69.075 E.01292
G1 X211.886 Y66.757 E.07267
G1 X211.879 Y78.93 E.38165
G1 X211.46 Y78.93 E.01314
G1 X211.46 Y66.757 E.38165
G1 X211.041 Y66.757 E.01314
G1 X211.041 Y78.93 E.38165
G1 X210.622 Y78.93 E.01314
G1 X210.622 Y66.757 E.38165
G1 X210.203 Y66.757 E.01314
G1 X210.203 Y78.93 E.38165
G1 X209.784 Y78.93 E.01314
G1 X209.784 Y66.757 E.38165
G1 X209.365 Y66.757 E.01314
G1 X209.365 Y78.93 E.38165
G1 X208.946 Y78.93 E.01314
G1 X208.946 Y66.757 E.38165
G1 X208.527 Y66.757 E.01314
G1 X208.527 Y78.93 E.38165
G1 X208.108 Y78.93 E.01314
G1 X208.108 Y66.757 E.38165
G1 X207.689 Y66.757 E.01314
G1 X207.689 Y78.93 E.38165
